X: 3
T: John O'Shea's March
Z: ceolachan
S: https://thesession.org/tunes/4770#setting28696
R: barndance
M: 4/4
L: 1/8
K: Amaj
|: cB |A2 cd e2 FG/A/ | B3 c e2 cB | AF EF A2 G2 | A6 Bc |
d3 e f2 ed | c2 A2 B2 cd | e/f/e/d/ cA G/A/G/E/ F^D | E6 Bc |
d2 Ad f2 ed | c2 Ac e2 B/c/d | ed cA GE F/E/^D | E2 ^D2 E2 cB |
A2 CD E2 F/G/A | B3 c e2 cB | AF EF A2 A2 | A6 :|
